public/images/common/favicon.svg

<svg fill="none" height="250" viewBox="0 0 250 250" width="250" xmlns="http://www.w3.org/2000/svg"><circle cx="125" cy="125" fill="#fff" r="121" stroke="#000" stroke-width="8"/><path d="m106.503 84.8457.8 11.1084c6.872-8.5905 16.085-12.8857 27.637-12.8857 10.191 0 17.774 2.9918 22.75 8.9755 4.977 5.9838 7.525 14.9301 7.643 26.8381v62.118h-25.683v-61.496c0-5.451-1.185-9.39-3.554-11.819-2.37-2.489-6.31-3.733-11.82-3.733-7.227 0-12.648 3.081-16.262 9.242v67.806h-25.6829v-96.1543z" fill="#000"/></svg>

<svg width="250" height="250" viewBox="0 0 250 250" fill="none" xmlns="http://www.w3.org/2000/svg">
<circle cx="125" cy="125" r="121" fill="white" stroke="black" stroke-width="8"/>
<path d="M106.503 84.8457L107.303 95.9541C114.175 87.3636 123.388 83.0684 134.94 83.0684C145.131 83.0684 152.714 86.0602 157.69 92.0439C162.667 98.0277 165.215 106.974 165.333 118.882V181H139.65V119.504C139.65 114.053 138.465 110.114 136.096 107.685C133.726 105.196 129.786 103.952 124.276 103.952C117.049 103.952 111.628 107.033 108.014 113.194V181H82.3311V84.8457H106.503Z" fill="black"/>
</svg>
